icons/1_Primary/MyAnimeList.svg

<svg width="1024" height="1024" viewBox="0 0 1024 1024" fill="none" xmlns="http://www.w3.org/2000/svg">
<g clip-path="url(#clip0_2_2856)">
<path d="M512 1024C794.77 1024 1024 794.77 1024 512C1024 229.23 794.77 0 512 0C229.23 0 0 229.23 0 512C0 794.77 229.23 1024 512 1024Z" fill="#728DBE"/>
<path d="M432.49 410.61V590.3L387.63 590.24V479L344.32 530.29L301.89 477.85L301.46 590.6H256V410.65H303L342.79 464.94L385.79 410.63L432.49 410.61ZM616.55 454.75L617.08 589.9H566.63L566.46 528.65H506.73C508.22 539.3 511.21 555.65 515.63 566.65C518.94 574.78 521.99 582.65 528.07 590.71L491.7 614.71C484.25 601.14 478.43 586.19 472.97 570.29C467.505 555.285 463.872 539.676 462.15 523.8C460.34 507.8 460.08 492.42 464.43 476.61C468.708 461.244 477.305 447.427 489.2 436.8C495.88 430.55 505.2 426.13 512.67 422.14C520.14 418.15 528.52 416.51 536.29 414.48C544.64 412.492 553.138 411.188 561.7 410.58C570.19 409.85 585.32 409.17 612.7 409.98L624.33 447.29H565.55C552.9 447.46 546.82 447.29 536.94 451.75C529.097 455.459 522.415 461.237 517.611 468.461C512.808 475.685 510.066 484.083 509.68 492.75L566.49 493.45L567.3 454.84H616.56L616.55 454.75ZM701.72 410V551.35L768 552L758.83 589.87H656.28V409.33L701.72 410Z" fill="white"/>
</g>
<defs>
<clipPath id="clip0_2_2856">
<rect width="1024" height="1024" fill="white"/>
</clipPath>
</defs>
</svg>

<svg width="1024" height="1024" fill="none" xmlns="http://www.w3.org/2000/svg"><g clip-path="url(#a)"><path d="M512 1024c282.77 0 512-229.23 512-512S794.77 0 512 0 0 229.23 0 512s229.23 512 512 512Z" fill="#728DBE"/><path d="M432.49 410.61V590.3l-44.86-.06V479l-43.31 51.29-42.43-52.44-.43 112.75H256V410.65h47l39.79 54.29 43-54.31 46.7-.02Zm184.06 44.14.53 135.15h-50.45l-.17-61.25h-59.73c1.49 10.65 4.48 27 8.9 38 3.31 8.13 6.36 16 12.44 24.06l-36.37 24c-7.45-13.57-13.27-28.52-18.73-44.42a198.343 198.343 0 0 1-10.82-46.49c-1.81-16-2.07-31.38 2.28-47.19a83.368 83.368 0 0 1 24.77-39.81c6.68-6.25 16-10.67 23.47-14.66 7.47-3.99 15.85-5.63 23.62-7.66a158.043 158.043 0 0 1 25.41-3.9c8.49-.73 23.62-1.41 51-.6l11.63 37.31h-58.78c-12.65.17-18.73 0-28.61 4.46a47.706 47.706 0 0 0-27.26 41l56.81.7.81-38.61h49.26l-.01-.09ZM701.72 410v141.35L768 552l-9.17 37.87H656.28V409.33l45.44.67Z" fill="#fff"/></g><defs><clipPath id="a"><path fill="#fff" d="M0 0h1024v1024H0z"/></clipPath></defs></svg>
